X:1
T:[ID 11-28a]
T:[ID 11-28a]
T:Bezeichnung standardisiert: Anglaise Nr 7 Angelese
T:Urheber unbekannt Datum in der hier transkribierten schriftlichen Quelle: vermutlich um 1800
C:Urheber unbekannt
C:Datum in der hier transkribierten schriftlichen Quelle: vermutlich um 1800
L:1/8
M:3/8
K:D
V:1 treble 
V:1
 A | dcd | dcd | A3 | F2 A | FAF | EDE | D2 A | d2 d | dcB | c2 e | A2 d | cdf | A2 ^G | BAA | %15
 A2 :: A | g/a/g/f/e/d/ | c3 | d/A/F/A/d/f/ | a/g/a/f/e/f/ | g/a/g/f/e/d/ | c/d/e/f/g/e/ | %23
 d/c/d/f/e/c/ | d3"^1)" :: x3 |[K:G] c | A2 B | Bcd | G2 G | GAB | ABc | ^cdB | ^G/A/ d2 | B3 | %35
 Bcd | e3 | efg | dBG | cAF | GG/F/G/F/ | G2 :| %42

